icons/svg/coffee-hot.svg

<svg width="24" height="24" viewBox="0 0 24 24" fill="none" xmlns="http://www.w3.org/2000/svg">
<path d="M3.5 10.6824C3.5 9.80692 4.20969 9.09723 5.08514 9.09723H16.5201C17.3956 9.09723 18.1053 9.80692 18.1053 10.6824V13.9474C18.1053 17.9805 14.8358 21.25 10.8026 21.25V21.25C6.7695 21.25 3.5 17.9805 3.5 13.9474V10.6824Z" stroke="currentColor" stroke-width="1.5" stroke-linecap="round" stroke-linejoin="round"/>
<path d="M18.1052 10.5555H19.5694C20.9118 10.5555 22 11.6437 22 12.9861V12.9861C22 14.3285 20.9118 15.4167 19.5694 15.4167H18.1052" stroke="currentColor" stroke-width="1.5" stroke-linecap="round" stroke-linejoin="round"/>
<path d="M6.42102 3.75L6.42102 6.18056" stroke="currentColor" stroke-width="1.5" stroke-linecap="round" stroke-linejoin="round"/>
<path d="M10.8026 3.75L10.8026 6.18056" stroke="currentColor" stroke-width="1.5" stroke-linecap="round" stroke-linejoin="round"/>
<path d="M15.1842 3.75L15.1842 6.18056" stroke="currentColor" stroke-width="1.5" stroke-linecap="round" stroke-linejoin="round"/>
</svg>

<svg xmlns="http://www.w3.org/2000/svg" width="24" height="24" fill="none" viewBox="0 0 24 24"><path stroke="currentColor" stroke-linecap="round" stroke-linejoin="round" stroke-width="1.5" d="M3.5 10.682c0-.875.71-1.585 1.585-1.585H16.52c.876 0 1.585.71 1.585 1.585v3.265a7.303 7.303 0 0 1-7.302 7.303v0A7.303 7.303 0 0 1 3.5 13.947z"/><path stroke="currentColor" stroke-linecap="round" stroke-linejoin="round" stroke-width="1.5" d="M18.105 10.556h1.464A2.43 2.43 0 0 1 22 12.986v0a2.43 2.43 0 0 1-2.43 2.43h-1.465M6.421 3.75v2.43m4.382-2.43v2.43m4.381-2.43v2.43"/></svg>
